X:1
T: Howard's Reel
C:
R:Reel
Q: 232
K:A
M:4/4
L:1/8
|:E|A2 ce d2 Bd|ce ae f2 df|e2 ce d2 Bd|c2 Ac BG E2|
A2 ce dc Bd|ce ae f2 df|e2 ce d2 Bd|cA BG A2-Ag|
a2 ae ce Ac|dc BA GB ed|ce Ac df ba|ge fg a2 eg|
ag ae ca ec|df ba gf ed|ce ae df ba|ge fg a2-a:|
